P3
16 16
255
25 33 38 25 33 38 25 33 38 25 33 38 25 33 38 25 33 38 25 33 38 25 33 38 25 33 38 25 33 38 25 33 38 25 33 38 25 33 38 25 33 38 25 33 38 25 33 38 25 33 38 25 33 38
25 33 38 25 33 38 25 33 38 25 33 38 188 229 211 188 229 211 188 229 211 188 229 211 188 229 211 25 33 38 25 33 38 25 33 38 25 33 38 25 33 38 25 33 38 25 33 38 25 33 38 25 33 38 25 33 38 25 33 38
25 33 38 25 33 38 25 33 38 188 229 211 188 229 211 188 229 211 188 229 211 188 229 211 188 229 211 188 229 211 25 33 38 25 33 38 25 33 38 25 33 38 25 33 38 25 33 38 25 33 38 25 33 38 25 33 38
25 33 38 25 33 38 25 33 38 188 229 211 188 229 211 188 229 211 188 229 211 188 229 211 188 229 211 188 229 211 25 33 38 25 33 38 25 33 38 25 33 38 25 33 38 25 33 38 25 33 38 25 33 38 25 33 38
25 33 38 25 33 38 25 33 38 188 229 211 188 229 211 188 229 211 188 229 211 188 229 211 188 229 211 188 229 211 25 33 38 25 33 38 25 33 38 25 33 38 25 33 38 25 33 38 25 33 38 25 33 38 25 33 38
25 33 38 25 33 38 25 33 38 188 229 211 188 229 211 188 229 211 188 229 211 188 229 211 188 229 211 188 229 211 25 33 38 25 33 38 25 33 38 25 33 38 25 33 38 25 33 38 25 33 38 25 33 38 25 33 38
25 33 38 25 33 38 25 33 38 188 229 211 188 229 211 188 229 211 188 229 211 188 229 188 229 211 188 229 211 188 229 211 25 33 38 25 33 38 25 33 38 25 33 38 25 33 38 25 33 38 25 33 38 25 33 38 25 33 38
25 33 38 25 33 38 25 33 38 188 229 211 188 229 211 188 229 211 188 229 211 188 229 211 188 229 211 188 229 211 25 33 38 25 33 38 25 33 38 25 33 38 25 33 38 25 33 38 25 33 38 25 33 38 25 33 38
25 33 38 25 33 38 25 33 38 188 229 211 188 229 211 188 229 211 188 229 211 188 229 211 188 229 211 188 229 211 25 33 38 25 33 38 25 33 38 25 33 38 25 33 38 25 33 38 25 33 38 25 33 38 25 33 38
25 33 38 25 33 38 25 33 38 188 229 211 188 229 211 188 229 211 188 229 211 188 229 211 188 229 211 188 229 211 25 33 38 25 33 38 25 33 38 25 33 38 25 33 38 25 33 38 25 33 38 25 33 38 25 33 38
25 33 38 25 33 38 25 33 38 188 229 211 188 229 211 188 229 211 188 229 211 188 229 211 188 229 211 188 229 211 25 33 38 25 33 38 25 33 38 25 33 38 25 33 38 25 33 38 25 33 38 25 33 38 25 33 38
25 33 38 25 33 38 25 33 38 25 33 38 25 33 38 25 33 38 25 33 38 25 33 38 25 33 38 25 33 38 25 33 38 25 33 38 25 33 38 25 33 38 25 33 38 25 33 38 25 33 38 25 33 38 25 33 38
25 33 38 25 33 38 25 33 38 25 33 38 25 33 38 25 33 38 25 33 38 25 33 38 25 33 38 25 33 38 25 33 38 25 33 38 25 33 38 25 33 38 25 33 38 25 33 38 25 33 38 25 33 38 25 33 38
25 33 38 25 33 38 25 33 38 25 33 38 25 33 38 25 33 38 25 33 38 25 33 38 25 33 38 25 33 38 25 33 38 25 33 38 25 33 38 25 33 38 25 33 38 25 33 38 25 33 38 25 33 38 25 33 38
25 33 38 25 33 38 25 33 38 25 33 38 25 33 38 25 33 38 25 33 38 25 33 38 25 33 38 25 33 38 25 33 38 25 33 38 25 33 38 25 33 38 25 33 38 25 33 38 25 33 38 25 33 38 25 33 38
25 33 38 25 33 38 25 33 38 25 33 38 25 33 38 25 33 38 25 33 38 25 33 38 25 33 38 25 33 38 25 33 38 25 33 38 25 33 38 25 33 38 25 33 38 25 33 38 25 33 38 25 33 38 25 33 38
